X: 20471
Q: "Andantino"
M: 6/8
L: 1/8
K: D
(A>FG) A2B | A2d A2A | B2d d>(ec) | d2d (f>ed) |
(c>BA) B2(B//c//d/) | c2A (f>ed) | (c>BA) B2 (B//c//d/) | c2z z2A |\
(AB)B zBc | (cd) d z2e | f2f (g>f)e | d3- d2d |
a2d (fe)d | c3- c2c | a2A (fed) | c2z z2A |\
(Bgf) (ed^c) | d2 (f//g//a/) =c2c | (Bgf) ed^c |d2f gfe |\
d2(a/f/) (gfe) | d3- d2 |]


